actions/symbolic/adw-external-link-symbolic.svg

<?xml version="1.0" encoding="UTF-8" standalone="no"?>
<svg
   height="16"
   width="16"
   version="1.1"
   id="svg6"
   sodipodi:docname="adw-external-link-symbolic.svg"
   inkscape:version="1.2.2 (b0a8486541, 2022-12-01)"
   xmlns:inkscape="http://www.inkscape.org/namespaces/inkscape"
   xmlns:sodipodi="http://sodipodi.sourceforge.net/DTD/sodipodi-0.dtd"
   xmlns="http://www.w3.org/2000/svg"
   xmlns:svg="http://www.w3.org/2000/svg">
  <sodipodi:namedview
     id="namedview3711"
     pagecolor="#ffffff"
     bordercolor="#000000"
     borderopacity="0.25"
     inkscape:showpageshadow="2"
     inkscape:pageopacity="0.0"
     inkscape:pagecheckerboard="0"
     inkscape:deskcolor="#d1d1d1"
     showgrid="false"
     inkscape:zoom="50.25"
     inkscape:cx="7.5522388"
     inkscape:cy="8.0199005"
     inkscape:window-width="1278"
     inkscape:window-height="1005"
     inkscape:window-x="645"
     inkscape:window-y="9"
     inkscape:window-maximized="0"
     inkscape:current-layer="svg6" />
  <defs
     id="defs10" />
  <path
     id="rect322"
     style="opacity:1;fill:#555761;stroke:none;stroke-width:1;stroke-linecap:round;-inkscape-stroke:none;stop-color:#000000"
     d="M 9.4082031,2 C 9.0392306,2 8.8543986,2.4460609 9.1152344,2.7070312 L 10.5,4.0859375 7.8574219,6.7285156 c -0.1849146,0.1994343 -0.1849148,0.5075977 0,0.7070313 L 8.6289062,8.2089844 C 8.821946,8.339799 9.1095576,8.3101606 9.2714844,8.1425781 l 2.6464846,-2.6464843 1.375,1.3710937 C 13.553938,7.1280224 14,6.9431911 14,6.5742188 V 2.5292969 C 14.0047,2.2344616 13.763586,1.995256 13.46875,2 Z M 5,3 C 3.8920066,3 3,3.8920066 3,5 v 6 c 0,1.107994 0.8920066,2 2,2 h 6 c 1.107994,0 2,-0.892006 2,-2 V 7.8417969 C 12.618253,7.6528437 12.28244,7.3216291 12,7.0019531 V 11 c 0,0.553995 -0.446006,1 -1,1 H 5 C 4.4460036,12 4,11.553995 4,11 V 5 C 4,4.4460036 4.4460036,4 5,4 H 9.0195312 C 8.6994928,3.7178047 8.3664234,3.3819673 8.1757812,3 Z"
     sodipodi:nodetypes="sccccccccsccsssssssccssssssccs" />
</svg>

<svg
        xmlns='http://www.w3.org/2000/svg'
        xmlns:svg='http://www.w3.org/2000/svg'
        id='svg6'
        width='16'
        height='16'>
  <path
          id='rect322'
          opacity='1'
          fill='url(#gpa:foreground) #555761'
          fill-opacity='1'
          fill-rule='nonzero'
          stroke='none'
          stroke-width='1'
          stroke-linecap='round'
          d='M 9.4082 2 C 9.03923 2, 8.8544 2.44606, 9.11523 2.70703 L 10.5 4.08594 L 7.85742 6.72852 C 7.67251 6.92795, 7.67251 7.23611, 7.85742 7.43555 L 8.62891 8.20898 C 8.82195 8.3398, 9.10956 8.31016, 9.27148 8.14258 L 11.918 5.49609 L 13.293 6.86719 C 13.5539 7.12802, 14 6.94319, 14 6.57422 L 14 2.5293 C 14.0047 2.23446, 13.7636 1.99526, 13.4688 2 Z M 5 3 C 3.89201 3, 3 3.89201, 3 5 L 3 11 C 3 12.108, 3.89201 13, 5 13 L 11 13 C 12.108 13, 13 12.108, 13 11 L 13 7.8418 C 12.6183 7.65284, 12.2824 7.32163, 12 7.00195 L 12 11 C 12 11.554, 11.554 12, 11 12 L 5 12 C 4.446 12, 4 11.554, 4 11 L 4 5 C 4 4.446, 4.446 4, 5 4 L 9.01953 4 C 8.69949 3.7178, 8.36642 3.38197, 8.17578 3 Z'
          class="foreground">
  </path>
</svg>
